source/images/adrianmejia-icon-logo-large.svg

<?xml version="1.0" encoding="UTF-8" standalone="no"?>
<svg width="964px" height="891px" viewBox="0 0 964 891" version="1.1" xmlns="http://www.w3.org/2000/svg" xmlns:xlink="http://www.w3.org/1999/xlink">
    <!-- Generator: Sketch 39.1 (31720) - http://www.bohemiancoding.com/sketch -->
    <title>adrianmejia-icon-logo-large</title>
    <desc>Created with Sketch.</desc>
    <defs>
        <rect id="path-1" x="0" y="0" width="962" height="890.493921"></rect>
        <path d="M962,703.188591 L962,843.821517 L888.428545,886.844356 L888.428545,478.241205 C888.428545,467.49448 885.767198,456.286498 880.468161,444.617257 C875.16321,432.977967 867.190997,421.566312 856.581095,410.35833 C844.208789,397.826475 831.274643,389.080535 817.760915,384.162441 C804.312243,379.220385 784.95538,376.770324 759.743554,376.770324 L467.279279,376.770324 L0,376.770324 L0,281.265852 L240.520699,140.635921 L481,0 L721.485215,140.635921 L962,281.271842 L962,421.913754 L962,703.188591 L962,703.188591 Z" id="path-3"></path>
        <polygon id="path-5" points="282.191577 0.153757781 280 891 0.813708089 727.370422 0.813708089 164.6241"></polygon>
        <rect id="path-7" x="677" y="-33" width="279" height="961"></rect>
        <mask id="mask-8" maskContentUnits="userSpaceOnUse" maskUnits="objectBoundingBox" x="0" y="0" width="279" height="961" fill="white">
            <use xlink:href="#path-7"></use>
        </mask>
        <polygon id="path-9" points="282 0.940120651 281.082634 891.355892 1.28075758 728.4566 0.845542821 166.019237"></polygon>
        <rect id="path-11" x="676" y="-32" width="276" height="960"></rect>
        <mask id="mask-12" maskContentUnits="userSpaceOnUse" maskUnits="objectBoundingBox" x="0" y="0" width="276" height="960" fill="white">
            <use xlink:href="#path-11"></use>
        </mask>
    </defs>
    <g id="Logo-Final" stroke="none" stroke-width="1" fill="none" fill-rule="evenodd">
        <g id="adrianmejia-icon-logo-large" transform="translate(0.000000, -1.000000)">
            <g id="newlogo" transform="translate(1.000000, 1.000000)">
                <g id="logo-adrianmejia">
                    <mask id="mask-2" fill="white">
                        <use xlink:href="#path-1"></use>
                    </mask>
                    <g id="Mask"></g>
                    <g mask="url(#mask-2)">
                        <g transform="translate(0.000000, -116.786088)">
                            <path d="M791.734513,942.907077 L720.42703,984.670777 L480.296498,1125.28262 L240.165965,984.670777 L0,844.046956 L0,562.823272 L0,455.009081 L320.809856,455.009081 C333.163915,455.009081 342.978659,456.218929 350.271805,458.704507 C357.564951,461.160138 363.842372,465.286796 369.139499,471.114429 C374.442532,476.924093 377.985761,482.43429 379.727849,487.591116 C381.434504,492.586229 382.343933,498.084447 382.397081,504.103738 L382.397081,504.403206 L382.397081,504.696684 L382.397081,523.509215 L217.453867,523.509215 C195.391362,523.509215 175.962656,530.013643 159.167751,542.998542 C138.433956,559.577048 126.050371,582.630035 122.08786,612.181461 C122.08786,613.966285 121.639051,616.883096 120.765054,620.901946 L120.765054,628.975583 C120.765054,649.56096 125.631089,667.708674 135.32182,683.388778 C145.036172,699.074871 158.961062,711.382975 177.055152,720.349023 C191.641444,727.039121 207.314327,730.405133 224.085611,730.405133 L382.397081,730.405133 L477.792616,730.405133 L477.792616,529.540485 L477.792616,517.447998 L477.792616,516.855053 L477.792616,516.286065 L477.792616,515.723067 L477.792616,454.979134 L586.386678,454.979134 L586.386678,730.393154 L681.776308,730.393154 L681.776308,454.979134 L747.361476,454.979134 C762.821765,454.979134 775.488808,462.992877 785.132297,479.170097 C789.602671,486.698703 791.734513,496.419409 791.734513,508.032748 L791.734513,942.907077 Z M382.397081,590.026875 L261.850526,590.026875 C250.807463,590.026875 241.193501,593.482727 233.026359,600.418388 C224.847405,607.378006 220.778597,615.319877 220.778597,624.279937 C220.778597,632.790795 224.298205,639.51084 231.378757,644.452049 L239.971087,649.117749 C247.482733,651.818943 253.683383,653.166546 258.525796,653.166546 L382.402987,653.166546 L382.402987,590.026875 L382.397081,590.026875 Z" id="Fill-1" stroke="none" fill="#7E8183" fill-rule="evenodd"></path>
                            <mask id="mask-4" fill="white">
                                <use xlink:href="#path-3"></use>
                            </mask>
                            <use id="Clip-4" stroke="none" fill="#0E557E" fill-rule="evenodd" xlink:href="#path-3"></use>
                        </g>
                    </g>
                </g>
            </g>
            <g id="Group" transform="translate(0.000000, 1.000000)">
                <mask id="mask-6" fill="white">
                    <use xlink:href="#path-5"></use>
                </mask>
                <use id="Rectangle-3" fill-opacity="0.15" fill="#FFFFFF" xlink:href="#path-5"></use>
                <g id="Rectangle-4" mask="url(#mask-6)" stroke-width="2" stroke="#979797" fill="#D8D8D8">
                    <use mask="url(#mask-8)" xlink:href="#path-7"></use>
                </g>
            </g>
            <g id="Group" transform="translate(823.000000, 446.000000) scale(-1, 1) translate(-823.000000, -446.000000) translate(682.000000, 0.000000)">
                <mask id="mask-10" fill="white">
                    <use xlink:href="#path-9"></use>
                </mask>
                <use id="Rectangle-3" fill-opacity="0.0869999975" fill="#000000" xlink:href="#path-9"></use>
                <g id="Rectangle-4" mask="url(#mask-10)" stroke-width="2" stroke="#979797" fill="#D8D8D8">
                    <use mask="url(#mask-12)" xlink:href="#path-11"></use>
                </g>
            </g>
        </g>
    </g>
</svg>

<svg width="964" height="891" viewBox="0 0 964 891" xmlns="http://www.w3.org/2000/svg" xmlns:xlink="http://www.w3.org/1999/xlink"><title>adrianmejia-icon-logo-large</title><defs><path id="c" d="M0 0h962v890.494H0z"/><path d="M962 703.189v140.633l-73.571 43.022V478.241c0-10.747-2.662-21.955-7.96-33.624-5.306-11.639-13.278-23.05-23.888-34.259-12.372-12.532-25.306-21.277-38.82-26.196-13.449-4.942-32.806-7.392-58.017-7.392H0v-95.504l240.52-140.63L481 0l240.485 140.636L962 281.272v421.917z" id="e"/><path id="f" d="M282.192.154L280 891 .814 727.37V164.624z"/><path id="a" d="M677-33h279v961H677z"/><mask id="h" x="0" y="0" width="279" height="961" fill="#fff"><use xlink:href="#a"/></mask><path id="i" d="M282 .94l-.917 890.416L1.28 728.456.846 166.02z"/><path id="b" d="M676-32h276v960H676z"/><mask id="k" x="0" y="0" width="276" height="960" fill="#fff"><use xlink:href="#b"/></mask></defs><g fill="none" fill-rule="evenodd"><g transform="translate(1)"><mask id="d" fill="#fff"><use xlink:href="#c"/></mask><g mask="url(#d)"><g transform="translate(0 -116.786)"><path d="M791.735 942.907l-71.308 41.764-240.13 140.612L240.165 984.67 0 844.047V455.009h320.81c12.354 0 22.169 1.21 29.462 3.696 7.293 2.455 13.57 6.582 18.867 12.41 5.304 5.81 8.847 11.32 10.589 16.476 1.707 4.995 2.616 10.493 2.67 16.513v19.405H217.453c-22.063 0-41.491 6.505-58.286 19.49-20.734 16.578-33.118 39.631-37.08 69.182 0 1.785-.449 4.702-1.323 8.72v8.075c0 20.585 4.866 38.733 14.557 54.413 9.714 15.686 23.64 27.994 41.733 36.96 14.586 6.69 30.26 10.056 47.03 10.056H477.794V454.98h108.594v275.414h95.39V454.98h65.584c15.46 0 28.128 8.014 37.771 24.191 4.47 7.529 6.603 17.25 6.603 28.863v434.874zm-409.338-352.88H261.851c-11.044 0-20.657 3.456-28.825 10.391-8.179 6.96-12.247 14.902-12.247 23.862 0 8.51 3.52 15.23 10.6 20.172l8.592 4.666c7.512 2.7 13.712 4.049 18.555 4.049h123.877v-63.14h-.006z" fill="#7E8183"/><use fill="#0E557E" xlink:href="#e"/></g></g></g><g><mask id="g" fill="#fff"><use xlink:href="#f"/></mask><use fill-opacity=".15" fill="#FFF" xlink:href="#f"/><g mask="url(#g)" stroke-width="2" stroke="#979797" fill="#D8D8D8"><use mask="url(#h)" xlink:href="#a"/></g></g><g transform="matrix(-1 0 0 1 964 -1)"><mask id="j" fill="#fff"><use xlink:href="#i"/></mask><use fill-opacity=".087" fill="#000" xlink:href="#i"/><g mask="url(#j)" stroke-width="2" stroke="#979797" fill="#D8D8D8"><use mask="url(#k)" xlink:href="#b"/></g></g></g></svg>
